d1 $ (slow 8 $ chop 8 $ sound (pick <$> "leaf" <*> "1 2 3"))


d2 $ brak $ slow 2 $ jux (iter 4) $ sound "bd8:4*3 cp8:3 sd8:2 ~"
   |+| gain "0.9"
   |+| speed "2"


d4 $ every 4 (jux (iter 4)) $ every 2 (chop 8) $ sound "bd8*4 ~ feel:2 ~"
   |+| end "0.3"

solo $ d5 $ every 3 (0.25 <~) $ every 2 (rev) $ slow 32 $ striate 128 $ sound "bev*2"

d6 $ every 3 (rev) $ slow 4 $ chop 8 $ sound "arc*2"
   |+| crush "4"


