d1 $ sound "[bd]"

d1 $ stack [every 3 (0.5 <~) (slow (4/3) $ sound (p "[bd bd]*1/7 [bd [sn [sn ~ bd] sn]]")),
            sound "bd bd"
           ]
  |+| shape (every 3 (fmap (+0.1)) "0.5 0.25")

d1 silence

\x = x + 1

     (+ 1)
     
bps $ 60/60

:t shape
hush
