k1 $ note "40"

d1 $ jux (iter 4) $ every 4 (smash 4 [1.5,2]) $ sound "drum drum*3"

d2 $ weave' 16 (sound (samples "arpy*8" (slow 8 $ scan 8)))
  [(vowel "a e o" |+|),
   (vowel "a e i o" |+|)
  ]
  |+| gain "1.3"

d1 $ weave' 16 (sound "bd sd8:2 ~ ~")
  [(superimpose (iter 4) . (speed "1 2 3 4" |+|))
  ]

hush
