d2 $ slow 8 $ striate 16 $ sound "bev/0"
  |+| speed "2"
  |+| pan "1"
  |+| shape "0.6"

d3 $ slow 8 $ striate 32 $ sound "bev/0"
  |+| speed "1"
  |+| pan "0"
  |+| shape "0.6"

d1 $ sound (slowcat ["[bd, wobble, drum]*2", "bd bd bd"])
  |+| shape "0.9"

d4 $ sound "techno techno/2 [sn sn sn]"
  |+| speed "2"

hush
