
d1 $ density 2 $ (spread' (striate' 4) ((+0.2) <$> slow 8 sine1)) $ jux rev $ sound (samples "[latibro*6,bd]/2" "0 7 4") |+| speed "[1 2 1.5]/4"

d2 $ spread' (triple) (slow 32 $ ratsine1) $ sound "bd*4"

