
cps 0.5

d1 $ whenmod 16 8 (append $ sound "jvbass*4") $ whenmod 8 4 (superimpose (density 2)) $  every 3 (0.25 <~) $ (jux (iter 4) $ sound "{drum sn:2, bd*4 [ht ~ ht] lt}")
   |+| end "0.4"
   |+| speed "[1 2 -1]/3"

d2 $ (every 3 (0.25 <~) $ every 2 rev $ chop 16 $ sound "arc")
   |+| speed "2 -4"

hush
d1 $ sound "numbers:2 numbers:5"


d3 $ every 2 (density 4) (sound "[bd*8 sn, cp arp,]")
|+| shape (scale 0 0.9 sinewave1)
