
d2 $ slow 2 $ stut 3 0.6 (-(1/7)) $ jux (iter 7) $ sound "[feel:9*2 feel:7 feel:10 ~ feel:7 ~ ~]"
  |+| speed "[1 -1]/2"


  d1 $ slow 2 $ sound "feel:2 feel:0 ~ feel:2 ~ feel:0 ~"
  |+| speed "2"

bps $ 130/60
